X: 36179
T: Scott MacMorran's
R: reel
M: 4/4
K: Amajor
|:EAA/A/A BcBA|~B2 AB cee/e/e|EAA/A/A BcBA|~B2 Ac dcAF:|
|:e2 dc ~B2 AB|BccB cBBB|1 cdcA ~B2 AB|BcAF EFAB:|2 cdcA ~B2 AF|EFAc BAFE||

